src/topics/icons/message.io.svg

<svg height="76" preserveAspectRatio="xMidYMid" viewBox="0 0 512 76" width="512" xmlns="http://www.w3.org/2000/svg"><path d="m468.251001 0h8.271295v8.271295h-8.271295z" fill="#e2231a"/><path d="m484.861949 0h26.796262v8.27129506h-26.796262zm18.456609 16.6109479h-26.796262-8.271295v8.2712951 31.1711615 8.2712951h8.271295 24.267023l10.800534 10.800534v-10.800534-8.2712951-31.1711615-8.2712951zm0 39.4424566h-26.796262v-31.1711615h26.796262zm-430.5174899 8.4080107v-47.9188251h31.5813089v8.3396529h-22.2162889v11.2106809h18.9351139v8.3396529h-18.9351139v11.6208277h22.2162889v8.3396529h-31.5813089zm205.8253669 0-2.80267-8.4763685h-17.021095l-2.871028 8.4763685h-9.775167l17.431242-47.9188251h7.314286l17.499599 47.9188251zm-11.142323-33.8371161-6.083845 17.4312416h11.894259zm-233.4419224 33.8371161v-27.9583444l-9.1599466 18.1831775h-6.3572764l-9.15994657-18.1831775v27.8899866h-9.36502003v-47.8504673h9.22830441l12.50947929 25.9076102 12.4411215-25.9076102h9.2283044v47.9188251zm112.7903874.3417891c-7.245928 0-12.782911-1.5722297-17.4996-6.3572764l6.083845-6.0838451c3.007744 3.0077436 7.109213 4.0331108 11.55247 4.0331108 5.536983 0 8.476369-2.1190921 8.476369-5.9471295 0-1.7089453-.478505-3.0761015-1.503872-4.0331108-.957009-.8886516-2.050734-1.3671562-4.238184-1.7089453l-5.810414-.8202937c-4.101469-.6152203-7.109212-1.9140187-9.296662-3.964753-2.255808-2.2558078-3.417891-5.400267-3.417891-9.4333779 0-8.5447263 6.357277-14.5602136 16.679306-14.5602136 6.56235 0 11.347396 1.6405875 15.448865 5.6053405l-5.947129 5.8787717c-3.007744-2.8710281-6.630708-3.2811749-9.843525-3.2811749-4.99012 0-7.382644 2.7343124-7.382644 6.0838451 0 1.2304406.410147 2.4608812 1.435514 3.4178905.95701.8886516 2.460882 1.6405875 4.443258 1.9140187l5.673698.8202937c4.3749.6152203 7.109213 1.8456609 9.159947 3.6913218 2.529239 2.3925234 3.691322 5.9471295 3.691322 10.1853138.068357 9.36502-7.656075 14.5602136-17.704673 14.5602136zm59.129506 0c-7.245928 0-12.782911-1.5722297-17.4996-6.3572764l6.083845-6.0838451c3.007744 3.0077436 7.109213 4.0331108 11.55247 4.0331108 5.536983 0 8.476369-2.1190921 8.476369-5.9471295 0-1.7089453-.478505-3.0761015-1.503872-4.0331108-.957009-.8886516-2.050734-1.3671562-4.238184-1.7089453l-5.810414-.8202937c-4.101469-.6152203-7.109212-1.9140187-9.296662-3.964753-2.255808-2.2558078-3.417891-5.400267-3.417891-9.4333779 0-8.5447263 6.357277-14.5602136 16.679306-14.5602136 6.56235 0 11.347396 1.6405875 15.448865 5.6053405l-5.947129 5.8787717c-3.007744-2.8710281-6.630708-3.2811749-9.843525-3.2811749-4.99012 0-7.382644 2.7343124-7.382644 6.0838451 0 1.2304406.410147 2.4608812 1.435514 3.4178905.95701.8886516 2.460882 1.6405875 4.443258 1.9140187l5.673698.8202937c4.3749.6152203 7.109213 1.8456609 9.159947 3.6913218 2.529239 2.3925234 3.691322 5.9471295 3.691322 10.1853138.068357 9.36502-7.656075 14.5602136-17.704673 14.5602136zm227.221362-.3417891v-8.4080107h8.40801v8.4080107zm-58.787717-8.3396529h31.581308v8.2712951h-31.581308zm0-39.5791722h31.581308v8.2712951h-31.581308zm0 19.6186916h17.77303v8.2712951h-17.77303zm-37.596796-5.5369826c-1.230441-3.964753-3.896395-6.152203-8.408011-6.152203-2.529239 0-4.648331 1.0253672-6.015487 2.529239-1.845661 2.0507343-2.255808 4.2381843-2.255808 13.4664887s.478505 11.4841121 2.255808 13.5348464c1.367156 1.5722297 3.41789 2.4608812 6.015487 2.4608812 2.80267 0 5.126836-1.0253672 6.630708-2.6659546 1.572229-1.7773031 2.18745-3.8963952 2.18745-6.3572764v-2.871028h9.296662v.2734312c0 6.9041389-1.230441 11.0739653-4.579973 14.6285715-3.828038 3.964753-8.408011 5.4686248-13.534847 5.4686248-5.263551 0-9.570093-1.9140187-12.919626-5.2635514-4.853404-4.8534045-4.716689-10.8005341-4.716689-19.1401869 0-8.3396529-.136715-14.2867824 4.716689-19.1401869 3.349533-3.3495328 7.519359-5.2635514 12.919626-5.2635514 10.732176 0 16.337517 6.7674232 17.909747 14.4918558zm-8.066222 13.8766355v-8.3396529h8.408011v8.4080107h-8.408011z" fill="#5e0d8b"/></svg>

<?xml version="1.0" encoding="UTF-8"?>
<svg width="512px" height="76px" viewBox="0 0 512 76" version="1.1" xmlns="http://www.w3.org/2000/svg" xmlns:xlink="http://www.w3.org/1999/xlink" preserveAspectRatio="xMidYMid">
	<g>
		<rect fill="#E2231A" x="468.251001" y="0" width="8.27129506" height="8.27129506"></rect>
		<path d="M484.861949,0 L511.658211,0 L511.658211,8.27129506 L484.861949,8.27129506 L484.861949,0 Z M503.318558,16.6109479 L476.522296,16.6109479 L468.251001,16.6109479 L468.251001,24.882243 L468.251001,56.0534045 L468.251001,64.3246996 L476.522296,64.3246996 L500.789319,64.3246996 L511.589853,75.1252336 L511.589853,64.3246996 L511.589853,56.0534045 L511.589853,24.882243 L511.589853,16.6109479 L503.318558,16.6109479 Z M503.318558,56.0534045 L476.522296,56.0534045 L476.522296,24.882243 L503.318558,24.882243 L503.318558,56.0534045 Z M72.8010681,64.4614152 L72.8010681,16.5425901 L104.382377,16.5425901 L104.382377,24.882243 L82.1660881,24.882243 L82.1660881,36.0929239 L101.101202,36.0929239 L101.101202,44.4325768 L82.1660881,44.4325768 L82.1660881,56.0534045 L104.382377,56.0534045 L104.382377,64.3930574 L72.8010681,64.3930574 L72.8010681,64.4614152 Z M278.626435,64.4614152 L275.823765,55.9850467 L258.80267,55.9850467 L255.931642,64.4614152 L246.156475,64.4614152 L263.587717,16.5425901 L270.902003,16.5425901 L288.401602,64.4614152 L278.626435,64.4614152 Z M267.484112,30.6242991 L261.400267,48.0555407 L273.294526,48.0555407 L267.484112,30.6242991 Z M34.0421896,64.4614152 L34.0421896,36.5030708 L24.882243,54.6862483 L18.5249666,54.6862483 L9.36502003,36.5030708 L9.36502003,64.3930574 L0,64.3930574 L0,16.5425901 L9.22830441,16.5425901 L21.7377837,42.4502003 L34.1789052,16.5425901 L43.4072096,16.5425901 L43.4072096,64.4614152 L34.0421896,64.4614152 Z M146.832577,64.8032043 C139.586649,64.8032043 134.049666,63.2309746 129.332977,58.4459279 L135.416822,52.3620828 C138.424566,55.3698264 142.526035,56.3951936 146.969292,56.3951936 C152.506275,56.3951936 155.445661,54.2761015 155.445661,50.4480641 C155.445661,48.7391188 154.967156,47.3719626 153.941789,46.4149533 C152.98478,45.5263017 151.891055,45.0477971 149.703605,44.706008 L143.893191,43.8857143 C139.791722,43.270494 136.783979,41.9716956 134.596529,39.9209613 C132.340721,37.6651535 131.178638,34.5206943 131.178638,30.4875834 C131.178638,21.9428571 137.535915,15.9273698 147.857944,15.9273698 C154.420294,15.9273698 159.20534,17.5679573 163.306809,21.5327103 L157.35968,27.411482 C154.351936,24.5404539 150.728972,24.1303071 147.516155,24.1303071 C142.526035,24.1303071 140.133511,26.8646195 140.133511,30.2141522 C140.133511,31.4445928 140.543658,32.6750334 141.569025,33.6320427 C142.526035,34.5206943 144.029907,35.2726302 146.012283,35.5460614 L151.685981,36.3663551 C156.060881,36.9815754 158.795194,38.212016 160.845928,40.0576769 C163.375167,42.4502003 164.53725,46.0048064 164.53725,50.2429907 C164.605607,59.6080107 156.881175,64.8032043 146.832577,64.8032043 Z M205.962083,64.8032043 C198.716155,64.8032043 193.179172,63.2309746 188.462483,58.4459279 L194.546328,52.3620828 C197.554072,55.3698264 201.655541,56.3951936 206.098798,56.3951936 C211.635781,56.3951936 214.575167,54.2761015 214.575167,50.4480641 C214.575167,48.7391188 214.096662,47.3719626 213.071295,46.4149533 C212.114286,45.5263017 211.020561,45.0477971 208.833111,44.706008 L203.022697,43.8857143 C198.921228,43.270494 195.913485,41.9716956 193.726035,39.9209613 C191.470227,37.6651535 190.308144,34.5206943 190.308144,30.4875834 C190.308144,21.9428571 196.665421,15.9273698 206.98745,15.9273698 C213.5498,15.9273698 218.334846,17.5679573 222.436315,21.5327103 L216.489186,27.411482 C213.481442,24.5404539 209.858478,24.1303071 206.645661,24.1303071 C201.655541,24.1303071 199.263017,26.8646195 199.263017,30.2141522 C199.263017,31.4445928 199.673164,32.6750334 200.698531,33.6320427 C201.655541,34.5206943 203.159413,35.2726302 205.141789,35.5460614 L210.815487,36.3663551 C215.190387,36.9815754 217.9247,38.212016 219.975434,40.0576769 C222.504673,42.4502003 223.666756,46.0048064 223.666756,50.2429907 C223.735113,59.6080107 216.010681,64.8032043 205.962083,64.8032043 Z M433.183445,64.4614152 L433.183445,56.0534045 L441.591455,56.0534045 L441.591455,64.4614152 L433.183445,64.4614152 Z M374.395728,56.1217623 L405.977036,56.1217623 L405.977036,64.3930574 L374.395728,64.3930574 L374.395728,56.1217623 Z M374.395728,16.5425901 L405.977036,16.5425901 L405.977036,24.8138852 L374.395728,24.8138852 L374.395728,16.5425901 Z M374.395728,36.1612817 L392.168758,36.1612817 L392.168758,44.4325768 L374.395728,44.4325768 L374.395728,36.1612817 Z M336.798932,30.6242991 C335.568491,26.6595461 332.902537,24.4720961 328.390921,24.4720961 C325.861682,24.4720961 323.74259,25.4974633 322.375434,27.0013351 C320.529773,29.0520694 320.119626,31.2395194 320.119626,40.4678238 C320.119626,49.6961282 320.598131,51.9519359 322.375434,54.0026702 C323.74259,55.5748999 325.793324,56.4635514 328.390921,56.4635514 C331.193591,56.4635514 333.517757,55.4381842 335.021629,53.7975968 C336.593858,52.0202937 337.209079,49.9012016 337.209079,47.4403204 L337.209079,44.5692924 L346.505741,44.5692924 L346.505741,44.8427236 C346.505741,51.7468625 345.2753,55.9166889 341.925768,59.4712951 C338.09773,63.4360481 333.517757,64.9399199 328.390921,64.9399199 C323.12737,64.9399199 318.820828,63.0259012 315.471295,59.6763685 C310.617891,54.822964 310.754606,48.8758344 310.754606,40.5361816 C310.754606,32.1965287 310.617891,26.2493992 315.471295,21.3959947 C318.820828,18.0464619 322.990654,16.1324433 328.390921,16.1324433 C339.123097,16.1324433 344.728438,22.8998665 346.300668,30.6242991 L336.798932,30.6242991 Z M328.73271,44.5009346 L328.73271,36.1612817 L337.140721,36.1612817 L337.140721,44.5692924 L328.73271,44.5692924 L328.73271,44.5009346 Z" fill="#5E0D8B"></path>
	</g>
</svg>
